X: 1
T:All's Well.Primo. JMT084
M:2/4
L:1/8
Q:200
C:Braham
S:J.Moore,Tyneside,1841.(60)
R:March
O:England
A:Northumbria
Z:C.G.P
K:G
"Andante"D|G2G2|G3A|B2{B}A>G|G2zG|B2B2B3c|dgec|B2Az/B/|A>B A>B|!
"9"A>B c>A|B>A B>A|B>c dz/G/|g2{f}e>d|d2z2|z4|z2zG|g2{f}e>d|!
"hold"d2zB|dc B{B}A|G2zG|"21"cccc|BBBB|eeee|dddd|ccBB|!
AABc|gdcB|"hold"B2Az|"29"z4|z4|z2zG|czz2|z2zD|!
d2z2|z4|z4|B2{d}c>B|B2z2|(G/4A/4B/4c/4d/4e/4f/4g/4)"hold"d2|!
z2"hold"z2|"hold"B2A>G|G2zA|B>B c>c|d>d e>c|B2A.G|G2z:|]
